X:1
T: Little House under the Hill
C:
R:Jig
Q:180
K:A
M:6/8
L:1/16
|:f2|e2d2c2 e2d2c2|e2d2c2 e4f2|e2d2c2 e2d2c2|d2B2c2 d4f2|
e2d2c2 e2d2c2|e2d2c2 e2f2g2|a2g2f2 e2d2c2|d2B2c2 d4:|
|:f2|e2c2c2 A2c2c2|e2c2d2 e4f2|e2c2c2 A2c2c2|d2B2c2 d4f2|
e2c2c2 A2c2c2|e2c2d2 e2f2g2|a2g2f2 e2d2c2|d2B2c2 d4:|
